;FLAVOR:RepRap
;TIME:923
;Filament used: 0.812448m
;Layer height: 0.2
;Generated with Cura_SteamEngine 2.4.0
; -- START GCODE --
M104 S200 ; Heat up extruder while leveling
M800 ; Custom GCODE to fire start print procedure
M109 S200 ; Makes sure the temperature is correct before printing
; -- end of START GCODE --
;LAYER_COUNT:18
;LAYER:0
M107
G1 F1500 E-6.5
G0 F3600 X87.111 Y130.794 Z0.2
;TYPE:SKIRT
G1 F1500 E0
G1 F1800 X88.647 Y129.863 E0.05974
G1 X89.507 Y129.416 E0.09198
G1 X91.192 Y128.676 E0.15319
G1 X92.113 Y128.342 E0.18577
G1 X93.853 Y127.839 E0.24601
G1 X94.807 Y127.63 E0.2785
G1 X96.654 Y127.352 E0.34062
G1 X97.532 Y127.273 E0.36994
G1 X99.491 Y127.214 E0.43513
G1 X99.728 Y127.211 E0.44301
G1 X111.667 Y127.234 E0.8401
G1 X112.451 Y127.277 E0.86622
G1 X114.349 Y127.483 E0.92972
G1 X115.104 Y127.605 E0.95515
G1 X116.036 Y127.805 E0.98686
G1 X116.726 Y127.988 E1.0106
G1 X118.386 Y128.516 E1.06854
G1 X119.278 Y128.865 E1.1004
G1 X120.937 Y129.641 E1.16131
G1 X121.786 Y130.108 E1.19354
G1 X123.32 Y131.088 E1.25408
G1 X124.099 Y131.661 E1.28625
G1 X125.464 Y132.809 E1.34557
G1 X126.158 Y133.474 E1.37754
G1 X127.399 Y134.829 E1.43865
G1 X128.01 Y135.591 E1.47114
G1 X129.062 Y137.098 E1.53226
G1 X129.564 Y137.928 E1.56453
G1 X130.381 Y139.504 E1.62357
G1 X130.766 Y140.383 E1.65549
G1 X131.392 Y142.106 E1.71646
G1 X131.611 Y142.818 E1.74124
G1 X131.848 Y143.755 E1.77338
G1 X131.993 Y144.479 E1.79794
G1 X132.26 Y146.271 E1.8582
G1 X132.34 Y147.245 E1.8907
G1 X132.369 Y149.075 E1.95158
G1 X132.322 Y150.036 E1.98358
G1 X132.119 Y151.805 E2.0428
G1 X131.946 Y152.756 E2.07495
G1 X131.496 Y154.556 E2.13666
G1 X131.203 Y155.471 E2.16862
G1 X130.565 Y157.092 E2.22656
G1 X130.163 Y157.948 E2.25801
G1 X129.294 Y159.528 E2.31799
G1 X128.775 Y160.342 E2.3501
G1 X127.7 Y161.806 E2.41051
G1 X127.232 Y162.38 E2.43514
G1 X126.585 Y163.098 E2.46728
G1 X126.059 Y163.625 E2.49205
G1 X124.716 Y164.843 E2.55235
G1 X123.959 Y165.445 E2.58452
G1 X122.452 Y166.489 E2.6455
G1 X121.616 Y166.99 E2.67791
G1 X120.01 Y167.814 E2.73795
G1 X119.133 Y168.195 E2.76975
G1 X117.434 Y168.805 E2.82979
G1 X116.513 Y169.069 E2.86166
G1 X114.783 Y169.447 E2.92056
G1 X113.852 Y169.589 E2.95188
G1 X112.137 Y169.74 E3.00914
G1 X111.482 Y169.769 E3.03095
G1 X98.183 Y169.759 E3.47328
G1 X97.338 Y169.71 E3.50143
G1 X95.559 Y169.504 E3.56099
G1 X94.613 Y169.332 E3.59297
G1 X92.827 Y168.885 E3.65421
G1 X91.915 Y168.592 E3.68607
G1 X90.321 Y167.965 E3.74304
G1 X89.466 Y167.564 E3.77445
G1 X87.852 Y166.677 E3.8357
G1 X87.029 Y166.152 E3.86817
G1 X85.555 Y165.067 E3.92905
G1 X84.817 Y164.445 E3.96115
G1 X83.538 Y163.217 E4.02012
G1 X82.895 Y162.514 E4.05181
G1 X81.758 Y161.099 E4.11218
G1 X81.2 Y160.304 E4.14449
G1 X80.256 Y158.749 E4.20499
G1 X79.807 Y157.886 E4.23735
G1 X79.066 Y156.2 E4.2986
G1 X78.736 Y155.291 E4.33076
G1 X78.241 Y153.59 E4.38969
G1 X78.069 Y152.866 E4.41444
G1 X77.883 Y151.859 E4.4485
G1 X77.784 Y151.115 E4.47346
G1 X77.639 Y149.334 E4.53289
G1 X77.624 Y148.373 E4.56486
G1 X77.713 Y146.55 E4.62556
G1 X77.824 Y145.585 E4.65787
G1 X78.148 Y143.806 E4.71802
G1 X78.312 Y143.1 E4.74212
G1 X78.567 Y142.207 E4.77301
G1 X78.797 Y141.529 E4.79682
G1 X79.435 Y139.908 E4.85476
G1 X79.837 Y139.052 E4.88622
G1 X80.706 Y137.472 E4.94619
G1 X81.225 Y136.658 E4.9783
G1 X82.3 Y135.194 E5.03871
G1 X82.927 Y134.449 E5.0711
G1 X84.197 Y133.126 E5.13209
G1 X84.914 Y132.471 E5.16439
G1 X86.326 Y131.342 E5.22452
G1 X87.111 Y130.794 E5.25637
G0 F3600 X87.319 Y131.136
G1 F1800 X88.855 Y130.205 E5.31611
G1 X89.668 Y129.782 E5.34659
G1 X91.353 Y129.042 E5.4078
G1 X92.224 Y128.726 E5.43861
G1 X93.964 Y128.223 E5.49886
G1 X94.866 Y128.026 E5.52956
G1 X96.713 Y127.748 E5.59169
G1 X97.544 Y127.673 E5.61944
G1 X99.503 Y127.614 E5.68462
G1 X99.727 Y127.611 E5.69208
G1 X111.666 Y127.634 E6.08917
G1 X112.408 Y127.675 E6.11389
G1 X114.306 Y127.881 E6.17738
G1 X115.02 Y127.996 E6.20144
G1 X115.952 Y128.196 E6.23314
G1 X116.605 Y128.369 E6.25561
G1 X118.265 Y128.897 E6.31355
G1 X119.109 Y129.227 E6.34369
G1 X120.768 Y130.003 E6.40461
G1 X121.571 Y130.445 E6.43509
G1 X123.105 Y131.425 E6.49564
G1 X123.842 Y131.967 E6.52606
G1 X125.207 Y133.115 E6.58539
G1 X125.863 Y133.744 E6.61561
G1 X127.104 Y135.099 E6.67673
G1 X127.682 Y135.82 E6.70746
G1 X128.734 Y137.327 E6.76859
G1 X129.209 Y138.112 E6.79911
G1 X130.026 Y139.688 E6.85815
G1 X130.39 Y140.52 E6.88835
G1 X131.016 Y142.243 E6.94933
G1 X131.223 Y142.917 E6.97278
G1 X131.46 Y143.854 E7.00492
G1 X131.598 Y144.538 E7.02813
G1 X131.865 Y146.33 E7.08839
G1 X131.94 Y147.251 E7.11913
G1 X131.969 Y149.081 E7.18
G1 X131.924 Y149.99 E7.21027
G1 X131.721 Y151.759 E7.26949
G1 X131.558 Y152.659 E7.29991
G1 X131.108 Y154.459 E7.36162
G1 X130.831 Y155.325 E7.39187
G1 X130.193 Y156.946 E7.44981
G1 X129.813 Y157.755 E7.47953
G1 X128.944 Y159.335 E7.53951
G1 X128.452 Y160.105 E7.5699
G1 X127.377 Y161.569 E7.63031
G1 X126.935 Y162.112 E7.6536
G1 X126.288 Y162.83 E7.68574
G1 X125.791 Y163.329 E7.70917
G1 X124.448 Y164.547 E7.76947
G1 X123.731 Y165.116 E7.79992
G1 X122.224 Y166.16 E7.86089
G1 X121.433 Y166.634 E7.89156
G1 X119.827 Y167.458 E7.9516
G1 X118.997 Y167.818 E7.98169
G1 X117.298 Y168.428 E8.04173
G1 X116.427 Y168.679 E8.07188
G1 X114.697 Y169.057 E8.13078
G1 X113.817 Y169.191 E8.16038
G1 X112.102 Y169.342 E8.21764
G1 X111.483 Y169.369 E8.23825
G1 X98.184 Y169.359 E8.68058
G1 X97.384 Y169.313 E8.70723
G1 X95.605 Y169.107 E8.7668
G1 X94.71 Y168.944 E8.79705
G1 X92.924 Y168.497 E8.85829
G1 X92.062 Y168.22 E8.8884
G1 X90.468 Y167.593 E8.94537
G1 X89.659 Y167.214 E8.97509
G1 X88.045 Y166.327 E9.03634
G1 X87.266 Y165.829 E9.06709
G1 X85.792 Y164.744 E9.12797
G1 X85.094 Y164.156 E9.15832
G1 X83.815 Y162.928 E9.2173
G1 X83.206 Y162.264 E9.24726
G1 X82.069 Y160.849 E9.30764
G1 X81.542 Y160.097 E9.33818
G1 X80.598 Y158.542 E9.39868
G1 X80.174 Y157.725 E9.4293
G1 X79.433 Y156.039 E9.49055
G1 X79.12 Y155.179 E9.52099
G1 X78.625 Y153.478 E9.57991
G1 X78.462 Y152.793 E9.60333
G1 X78.276 Y151.786 E9.63739
G1 X78.183 Y151.083 E9.66098
G1 X78.038 Y149.302 E9.72041
G1 X78.023 Y148.393 E9.75065
G1 X78.112 Y146.57 E9.81135
G1 X78.217 Y145.657 E9.84192
G1 X78.541 Y143.878 E9.90206
G1 X78.697 Y143.21 E9.92488
G1 X78.952 Y142.317 E9.95577
G1 X79.169 Y141.675 E9.97831
G1 X79.807 Y140.054 E10.03625
G1 X80.187 Y139.245 E10.06597
G1 X81.056 Y137.665 E10.12595
G1 X81.548 Y136.895 E10.15634
G1 X82.623 Y135.431 E10.21675
G1 X83.215 Y134.726 E10.24737
G1 X84.485 Y133.403 E10.30837
G1 X85.164 Y132.784 E10.33893
G1 X86.576 Y131.655 E10.39906
G1 X87.319 Y131.136 E10.4292
G0 F3600 X87.526 Y131.478
G1 F1800 X89.062 Y130.547 E10.48894
G1 X89.829 Y130.148 E10.5177
G1 X91.514 Y129.408 E10.5789
G1 X92.335 Y129.111 E10.60794
G1 X94.075 Y128.608 E10.66819
G1 X94.926 Y128.422 E10.69716
G1 X96.773 Y128.144 E10.75928
G1 X97.556 Y128.073 E10.78543
G1 X99.515 Y128.014 E10.85062
G1 X99.727 Y128.011 E10.85767
G1 X111.666 Y128.034 E11.25476
G1 X112.365 Y128.073 E11.27805
G1 X114.263 Y128.279 E11.34155
G1 X114.936 Y128.387 E11.36422
G1 X115.868 Y128.587 E11.39592
G1 X116.484 Y128.75 E11.41711
G1 X118.144 Y129.278 E11.47505
G1 X118.939 Y129.59 E11.50346
G1 X120.598 Y130.366 E11.56437
G1 X121.355 Y130.782 E11.5931
G1 X122.889 Y131.762 E11.65365
G1 X123.584 Y132.273 E11.68234
G1 X124.949 Y133.421 E11.74166
G1 X125.568 Y134.014 E11.77017
G1 X126.809 Y135.369 E11.83128
G1 X127.354 Y136.049 E11.86027
G1 X128.406 Y137.556 E11.9214
G1 X128.853 Y138.296 E11.95015
G1 X129.67 Y139.872 E12.00919
G1 X130.014 Y140.656 E12.03767
G1 X130.64 Y142.379 E12.09864
G1 X130.835 Y143.015 E12.12077
G1 X131.072 Y143.952 E12.15291
G1 X131.202 Y144.597 E12.1748
G1 X131.469 Y146.389 E12.23506
G1 X131.54 Y147.257 E12.26402
G1 X131.569 Y149.087 E12.3249
G1 X131.527 Y149.944 E12.35343
G1 X131.324 Y151.713 E12.41266
G1 X131.17 Y152.562 E12.44136
G1 X130.72 Y154.362 E12.50307
G1 X130.458 Y155.178 E12.53157
G1 X129.82 Y156.799 E12.58951
G1 X129.462 Y157.563 E12.61757
G1 X128.593 Y159.143 E12.67755
G1 X128.13 Y159.868 E12.70616
G1 X127.055 Y161.332 E12.76657
G1 X126.638 Y161.844 E12.78853
G1 X125.991 Y162.562 E12.82068
G1 X125.522 Y163.033 E12.84279
G1 X124.179 Y164.251 E12.90309
G1 X123.503 Y164.787 E12.93178
G1 X121.996 Y165.831 E12.99276
G1 X121.251 Y166.278 E13.02166
G1 X119.645 Y167.102 E13.08169
G1 X118.862 Y167.442 E13.11008
G1 X117.163 Y168.052 E13.17013
G1 X116.342 Y168.288 E13.19854
G1 X114.612 Y168.666 E13.25744
G1 X113.782 Y168.793 E13.28536
G1 X112.067 Y168.944 E13.34262
G1 X111.483 Y168.969 E13.36207
G1 X98.184 Y168.959 E13.80439
G1 X97.43 Y168.915 E13.82951
G1 X95.651 Y168.709 E13.88908
G1 X94.808 Y168.556 E13.91757
G1 X93.022 Y168.109 E13.97881
G1 X92.208 Y167.848 E14.00724
G1 X90.614 Y167.221 E14.06421
G1 X89.851 Y166.863 E14.09224
G1 X88.237 Y165.976 E14.1535
G1 X87.503 Y165.507 E14.18247
G1 X86.029 Y164.422 E14.24334
G1 X85.371 Y163.868 E14.27195
G1 X84.092 Y162.64 E14.33093
G1 X83.518 Y162.013 E14.3592
G1 X82.381 Y160.598 E14.41957
G1 X81.884 Y159.889 E14.44837
G1 X80.94 Y158.334 E14.50888
G1 X80.54 Y157.565 E14.53771
G1 X79.799 Y155.879 E14.59896
G1 X79.504 Y155.067 E14.62769
G1 X79.009 Y153.366 E14.68662
G1 X78.856 Y152.721 E14.70866
G1 X78.67 Y151.714 E14.74272
G1 X78.582 Y151.051 E14.76497
G1 X78.437 Y149.27 E14.8244
G1 X78.423 Y148.412 E14.85294
G1 X78.512 Y146.589 E14.91365
G1 X78.611 Y145.728 E14.94247
G1 X78.935 Y143.949 E15.00262
G1 X79.082 Y143.32 E15.0241
G1 X79.337 Y142.427 E15.05499
G1 X79.542 Y141.822 E15.07624
G1 X80.18 Y140.201 E15.13418
G1 X80.538 Y139.437 E15.16224
G1 X81.407 Y137.857 E15.22221
G1 X81.87 Y137.132 E15.25082
G1 X82.945 Y135.668 E15.31123
G1 X83.504 Y135.003 E15.34013
G1 X84.774 Y133.68 E15.40112
G1 X85.413 Y133.096 E15.42992
G1 X86.825 Y131.967 E15.49005
G1 X87.526 Y131.478 E15.51847
G0 F3600 X87.733 Y131.82
G1 F1800 X89.269 Y130.889 E15.57821
G1 X89.99 Y130.514 E15.60524
G1 X91.675 Y129.774 E15.66645
G1 X92.446 Y129.495 E15.69372
G1 X94.186 Y128.992 E15.75397
G1 X94.985 Y128.817 E15.78117
G1 X96.832 Y128.539 E15.8433
G1 X97.568 Y128.473 E15.86787
G1 X99.527 Y128.414 E15.93306
G1 X99.726 Y128.411 E15.93968
G1 X111.665 Y128.434 E16.33677
G1 X112.322 Y128.47 E16.35866
G1 X114.22 Y128.676 E16.42216
G1 X114.852 Y128.778 E16.44345
G1 X115.784 Y128.978 E16.47515
G1 X116.362 Y129.132 E16.49505
G1 X118.022 Y129.66 E16.55298
G1 X118.77 Y129.952 E16.57969
G1 X120.429 Y130.728 E16.64061
G1 X121.14 Y131.119 E16.6676
G1 X122.674 Y132.099 E16.72814
G1 X123.327 Y132.579 E16.75509
G1 X124.692 Y133.727 E16.81442
G1 X125.273 Y134.284 E16.84119
G1 X126.514 Y135.639 E16.9023
G1 X127.026 Y136.278 E16.92953
G1 X128.078 Y137.785 E16.99066
G1 X128.498 Y138.481 E17.0177
G1 X129.315 Y140.057 E17.07674
G1 X129.638 Y140.793 E17.10347
G1 X130.264 Y142.516 E17.16445
G1 X130.448 Y143.113 E17.18522
G1 X130.685 Y144.05 E17.21737
G1 X130.806 Y144.656 E17.23792
G1 X131.073 Y146.448 E17.29818
G1 X131.14 Y147.264 E17.32542
G1 X131.169 Y149.094 E17.38629
G1 X131.13 Y149.899 E17.4131
G1 X130.927 Y151.668 E17.47232
G1 X130.782 Y152.465 E17.49926
G1 X130.332 Y154.265 E17.56097
G1 X130.086 Y155.032 E17.58776
G1 X129.448 Y156.653 E17.6457
G1 X129.112 Y157.37 E17.67204
G1 X128.243 Y158.95 E17.73202
G1 X127.807 Y159.632 E17.75894
G1 X126.732 Y161.096 E17.81935
G1 X126.341 Y161.576 E17.83994
G1 X125.694 Y162.294 E17.87209
G1 X125.253 Y162.737 E17.89288
G1 X123.91 Y163.955 E17.95318
G1 X123.276 Y164.458 E17.9801
G1 X121.769 Y165.502 E18.04107
G1 X121.068 Y165.922 E18.06825
G1 X119.462 Y166.746 E18.12829
G1 X118.727 Y167.065 E18.15494
G1 X117.028 Y167.675 E18.21498
G1 X116.256 Y167.897 E18.24169
G1 X114.526 Y168.275 E18.30059
G1 X113.747 Y168.394 E18.3268
G1 X112.032 Y168.545 E18.38406
G1 X111.483 Y168.569 E18.40234
G1 X98.184 Y168.559 E18.84467
G1 X97.476 Y168.518 E18.86826
G1 X95.697 Y168.312 E18.92782
G1 X94.905 Y168.167 E18.9546
G1 X93.119 Y167.72 E19.01584
G1 X92.354 Y167.476 E19.04254
G1 X90.76 Y166.849 E19.09951
G1 X90.044 Y166.513 E19.12582
G1 X88.43 Y165.626 E19.18707
G1 X87.741 Y165.185 E19.21428
G1 X86.267 Y164.1 E19.27516
G1 X85.648 Y163.579 E19.30207
G1 X84.369 Y162.351 E19.36104
G1 X83.83 Y161.763 E19.38757
G1 X82.693 Y160.348 E19.44794
G1 X82.226 Y159.681 E19.47503
G1 X81.282 Y158.126 E19.53553
G1 X80.906 Y157.404 E19.56261
G1 X80.165 Y155.718 E19.62386
G1 X79.888 Y154.955 E19.65086
G1 X79.393 Y153.254 E19.70978
G1 X79.249 Y152.648 E19.7305
G1 X79.063 Y151.641 E19.76456
G1 X78.98 Y151.018 E19.78546
G1 X78.835 Y149.237 E19.84489
G1 X78.822 Y148.432 E19.87167
G1 X78.911 Y146.609 E19.93238
G1 X79.004 Y145.8 E19.95946
G1 X79.328 Y144.021 E20.0196
G1 X79.466 Y143.43 E20.03979
G1 X79.721 Y142.537 E20.07068
G1 X79.914 Y141.968 E20.09066
G1 X80.552 Y140.347 E20.1486
G1 X80.888 Y139.63 E20.17494
G1 X81.757 Y138.05 E20.23491
G1 X82.193 Y137.368 E20.26184
G1 X83.268 Y135.904 E20.32225
G1 X83.792 Y135.28 E20.34935
G1 X85.062 Y133.957 E20.41034
G1 X85.663 Y133.409 E20.43739
G1 X87.075 Y132.28 E20.49752
G1 X87.733 Y131.82 E20.52423
G1 F1500 E14.02423
G0 F3600 X90.772 Y136.423
G0 X91.52 Y137.467
G0 X91.505 Y137.437
G0 X92.597 Y136.775
G0 X93.424 Y136.369
G0 X94.276 Y136.019
G0 X95.15 Y135.73
G0 X96.042 Y135.502
G0 X96.948 Y135.336
G0 X97.863 Y135.233
G0 X98.783 Y135.194
G0 X99.704 Y135.218
G0 X101.528 Y135.458
G0 X103.303 Y135.946
G0 X104.161 Y136.283
G0 X105.865 Y137.108
G0 X99.72 Y146.25
G0 X99.379 Y146.444
G0 X99.03 Y146.418
G0 X95.032 Y145.242
;TYPE:WALL-INNER
G1 F1500 E20.52423
G1 F1800 X95.179 Y145.25 E20.52912
G1 X95.246 Y145.261 E20.53138
G1 X95.595 Y145.32 E20.54315
G1 X96.037 Y145.429 E20.5583
G1 X96.56 Y145.583 E20.57643
G1 X97.034 Y145.744 E20.59308
G1 X97.395 Y145.887 E20.60599
G1 X97.686 Y146.026 E20.61672
G1 X97.871 Y146.136 E20.62388
G1 X98.347 Y146.47 E20.64322
G1 X98.646 Y146.655 E20.65491
G1 X98.819 Y146.724 E20.66111
G1 X98.947 Y146.774 E20.66568
G1 X99.226 Y146.795 E20.67498
G1 X99.463 Y146.813 E20.68289
G1 X99.756 Y146.647 E20.69409
G1 X99.98 Y146.519 E20.70267
G1 X100.048 Y146.409 E20.70697
G1 X100.223 Y146.125 E20.71807
G1 X100.24 Y146.038 E20.72102
G1 X100.311 Y145.675 E20.73332
G1 X100.312 Y145.668 E20.73355
G1 X100.377 Y145.339 E20.74471
G1 X99.781 Y144.812 E20.77117
G1 X99.674 Y144.698 E20.77637
G1 X99.579 Y144.576 E20.78151
G1 X99.502 Y144.451 E20.78639
G1 X99.44 Y144.325 E20.79107
G1 X99.402 Y144.197 E20.79551
G1 X99.437 Y144.148 E20.79751
G1 X99.493 Y144.099 E20.79998
G1 X99.668 Y143.975 E20.80712
G1 X99.926 Y143.76 E20.81829
G1 X100.103 Y143.548 E20.82747
G1 X100.243 Y143.3 E20.83695
G1 X100.34 Y142.983 E20.84797
G1 X100.341 Y142.619 E20.86008
G1 X100.228 Y142.249 E20.87295
G1 X100.003 Y141.946 E20.8855
G1 X99.952 Y141.857 E20.88891
G1 X99.892 Y141.697 E20.89459
G1 X99.883 Y141.671 E20.89551
G1 X99.87 Y141.604 E20.89778
G1 X99.873 Y141.516 E20.90071
G1 X99.889 Y141.444 E20.90316
G1 X99.945 Y141.436 E20.90504
G1 X100.178 Y141.462 E20.91284
G1 X100.206 Y141.462 E20.91377
G1 X100.537 Y141.47 E20.92478
G1 X100.947 Y141.342 E20.93907
G1 X101.287 Y141.068 E20.95359
G1 X101.503 Y140.71 E20.9675
G1 X101.584 Y140.289 E20.98176
G1 X101.511 Y139.91 E20.9946
G1 X101.506 Y139.882 E20.99554
G1 X101.403 Y139.702 E21.00244
G1 X101.353 Y139.615 E21.00578
G1 X101.239 Y139.441 E21.0127
G0 X101.389 Y139.483
G0 X101.601 Y139.542
G0 X101.655 Y139.558
G1 X101.683 Y139.561 E21.01363
G1 X101.917 Y139.587 E21.02146
G1 X102.274 Y139.554 E21.03339
G1 X102.81 Y139.237 E21.0541
G1 X103.01 Y138.726 E21.07235
G1 X103.069 Y138.051 E21.09489
G1 X103.075 Y137.979 E21.09729
G1 X103.175 Y137.979 E21.10062
G1 X103.344 Y138 E21.10628
G1 X103.415 Y138.014 E21.10839
